X: 28627
T: Music In The Glen
R: reel
M: 4/4
K: Gmajor
|:G2BG EGDc|BDGB AGAB|cdec BcdB|A3G AGEF|
GABG EGDc|BDGB AGEG|(3Bcd ef g3e|dBAc BG G2:|
BGdG egdc|BGdG BA3|BGdG egdc|(3Bcd Ac BG G2|
BGdG egdc|BGdG BA3|g2 fg (3efg dc|(3Bcd Ac BG G2:|

